X:160
M:2/4
L:1/8
Q:1/4=140
K:A
|:ae {d/}cB/A/|GA B2|ce {d/}cB/A/|e2E2|\
ae {d/}cB/A/|G>AB>d|c/e/c/A/ {d/}cB/A/|A2A,2:|

